assets/Carousel horse/Flat/carousel_horse_flat.svg

<svg width="32" height="32" viewBox="0 0 32 32" fill="none" xmlns="http://www.w3.org/2000/svg">
<path d="M7 8.01001H5V2.01001C6.1 2.01001 7 2.91001 7 4.01001V8.01001Z" fill="#FFCE7C"/>
<path d="M15 2.01001H17V11.01L16 12.01L15 11.01V2.01001ZM15 20.01L16 19.01L17 20.01V30.01H15V20.01Z" fill="#FCD53F"/>
<path d="M10 20.01L11.5 19.01L13 20.01L9.35999 28.2C9.13999 28.69 8.64999 29.01 8.10999 29.01C7.11999 29.01 6.46 27.99 6.86 27.08L10 20.01ZM24 24.01H23.4891L21.63 28.2C21.33 28.85 20.56 29.2 19.83 28.9C19.12 28.61 18.83 27.74 19.14 27.04L20.4896 24.0034C19.0984 23.9057 18 22.746 18 21.33V20.01L21 19.01L24 20.01V24.01Z" fill="#D3883E"/>
<path d="M4.5 6C3.67 6 3 5.33 3 4.5C3 3.67 3.67 3 4.5 3C4.55911 3 4.61741 3.0034 4.67471 3.01001H8.79765C8.8642 3.00339 8.93171 3 9.00001 3C10.1156 3 11.02 3.90437 11.02 5.01999C11.02 5.37812 10.9268 5.71448 10.7634 6.00614C10.8474 5.99548 10.9331 5.98999 11.02 5.98999C12.1356 5.98999 13.04 6.89438 13.04 8.00999C13.04 8.36609 12.9479 8.70066 12.7861 8.99117C12.8564 8.98377 12.9278 8.97998 13 8.97998C14.1156 8.97998 15.02 9.88437 15.02 11C15.02 12.1156 14.1156 13.02 13 13.02C11.8844 13.02 10.98 12.1156 10.98 11C10.98 10.6439 11.0722 10.3093 11.2339 10.0188C11.1636 10.0262 11.0922 10.03 11.02 10.03C9.90439 10.03 9 9.12561 9 8.00999C9 7.65187 9.0932 7.31551 9.25666 7.02384C9.17261 7.0345 9.08695 7.03999 9.00001 7.03999C7.8844 7.03999 6.98001 6.1356 6.98001 5.01999C6.98001 4.69233 7.05802 4.38289 7.19649 4.10924L7 4.01001L5.61584 5.50371C5.3415 5.80862 4.9436 6 4.5 6ZM24 13.01C24 11.9088 24.89 11.0154 25.99 11.01V11.01L25.9955 11.01L26 11.01C26.0146 11.01 26.0292 11.0102 26.0438 11.0105C27.6788 11.0391 28.99 12.368 28.99 14.01V17.2718C29.5933 17.6162 30 18.2656 30 19.01C30 20.1146 29.1046 21.01 28 21.01C26.8954 21.01 26 20.1146 26 19.01H25.99V16.98H25V14.7424C24.4022 14.3966 24 13.7503 24 13.01Z" fill="#6D4534"/>
<path d="M9.82 5.84998L6 5.97998V11.01V11.09V14.31C6 15.2871 6.24537 16.2066 6.67792 17.01H4C2.59 17.01 1.65 18.46 2.22 19.75L4.19 24.19C4.48 24.85 5.25 25.2 5.99 24.89C6.7 24.6 6.99 23.74 6.68 23.04L5.33333 20.01H11.4V20.0023C11.4993 20.0074 11.5994 20.01 11.7 20.01H19.99V21.33C19.99 22.81 21.19 24.01 22.67 24.01H24.4167L23.07 27.04C22.76 27.74 23.05 28.61 23.76 28.9C24.49 29.2 25.26 28.85 25.56 28.2L27.53 23.76C28.067 22.5353 27.2638 21.1774 25.99 21.0243V20.01L25.9603 20H26V16.7C26 13.55 23.45 11 20.3 11H11.9958L9.82 5.84998Z" fill="#F3AD61"/>
<path d="M5.94 11C5.94 11.6116 5.5 12 5.22397 12.5195C4.88331 12.8009 4.44641 12.97 3.97 12.97C2.882 12.97 2 12.088 2 11C2 10.7012 2.06652 10.418 2.18556 10.1642C2.22488 10.0804 2.38377 9.7349 2.39999 9.69995C2.42762 9.72758 3.62136 9.03003 3.97 9.03003C5.058 9.03003 5.94 9.91203 5.94 11Z" fill="#D3883E"/>
<path d="M7.00003 4.01016V2C8.10003 2 9.00003 2.9 9.00003 4V4.73776C9.64887 5.29349 10.06 6.11873 10.06 7.04001C10.06 7.82679 9.76016 8.54352 9.26847 9.08216L9.28002 9.08998L9.1824 9.17266C9.05772 9.29849 8.92208 9.41344 8.77703 9.51597L5.23002 12.52L2.40002 9.69998L4.30002 5.71997L4.30145 5.72094C4.78779 4.71676 5.81214 4.02168 7.00003 4.01016Z" fill="#FFCE7C"/>
<path d="M5.00002 8.49002C5.26512 8.49002 5.48002 8.27512 5.48002 8.01003C5.48002 7.74493 5.26512 7.53003 5.00002 7.53003C4.73492 7.53003 4.52002 7.74493 4.52002 8.01003C4.52002 8.27512 4.73492 8.49002 5.00002 8.49002Z" fill="#D3883E"/>
<path d="M18.91 16.01H13.09C12.49 16.01 12 15.52 12 14.92V11.01H19.99V14.92C19.99 15.52 19.51 16.01 18.91 16.01Z" fill="#F8312F"/>
</svg>

<svg xmlns="http://www.w3.org/2000/svg" width="32" height="32" fill="none"><path fill="#FFCE7C" d="M7 8.01H5v-6c1.1 0 2 .9 2 2v4Z"/><path fill="#FCD53F" d="M15 2.01h2v9l-1 1-1-1v-9Zm0 18 1-1 1 1v10h-2v-10Z"/><path fill="#D3883E" d="m10 20.01 1.5-1 1.5 1-3.64 8.19c-.22.49-.71.81-1.25.81-.99 0-1.65-1.02-1.25-1.93L10 20.01Zm14 4h-.51l-1.86 4.19c-.3.65-1.07 1-1.8.7-.71-.29-1-1.16-.69-1.86l1.35-3.037A2.68 2.68 0 0 1 18 21.33v-1.32l3-1 3 1v4Z"/><path fill="#6D4534" d="M4.5 6C3.67 6 3 5.33 3 4.5a1.498 1.498 0 0 1 1.675-1.49h4.123a2.02 2.02 0 0 1 1.966 2.996 2.02 2.02 0 0 1 2.023 2.985 2.02 2.02 0 1 1-1.552 1.028 2.02 2.02 0 0 1-1.977-2.995 2.02 2.02 0 0 1-2.06-2.915l-.198-.099-1.384 1.494A1.496 1.496 0 0 1 4.5 6ZM24 13.01a2 2 0 0 1 1.99-2h.054a2.996 2.996 0 0 1 2.946 3v3.262A2 2 0 1 1 26 19.01h-.01v-2.03H25v-2.238a2 2 0 0 1-1-1.732Z"/><path fill="#F3AD61" d="M9.82 5.85 6 5.98v8.33c0 .977.245 1.897.678 2.7H4c-1.41 0-2.35 1.45-1.78 2.74l1.97 4.44c.29.66 1.06 1.01 1.8.7.71-.29 1-1.15.69-1.85l-1.347-3.03H11.4v-.008c.1.005.2.008.3.008h8.29v1.32c0 1.48 1.2 2.68 2.68 2.68h1.747l-1.347 3.03c-.31.7-.02 1.57.69 1.86.73.3 1.5-.05 1.8-.7l1.97-4.44c.537-1.225-.266-2.583-1.54-2.736V20.01l-.03-.01H26v-3.3c0-3.15-2.55-5.7-5.7-5.7h-8.304L9.82 5.85Z"/><path fill="#D3883E" d="M5.94 11c0 .612-.44 1-.716 1.52a1.97 1.97 0 0 1-3.038-2.355L2.4 9.7c.028.028 1.221-.67 1.57-.67A1.97 1.97 0 0 1 5.94 11Z"/><path fill="#FFCE7C" d="M7 4.01V2c1.1 0 2 .9 2 2v.738a3.023 3.023 0 0 1 1.06 2.302c0 .787-.3 1.504-.792 2.042l.012.008-.098.083c-.124.125-.26.24-.405.343L5.23 12.52 2.4 9.7l1.9-3.98h.001A3.03 3.03 0 0 1 7 4.01Z"/><path fill="#D3883E" d="M5 8.49a.48.48 0 1 0 0-.96.48.48 0 0 0 0 .96Z"/><path fill="#F8312F" d="M18.91 16.01h-5.82c-.6 0-1.09-.49-1.09-1.09v-3.91h7.99v3.91c0 .6-.48 1.09-1.08 1.09Z"/></svg>
